X:1
T:Tico Tico no Fuba
T:Tico Tico no Fuba
T:Violino Solo
T:Zequinha de Abreu
C:Zequinha de Abreu
L:1/8
M:2/4
K:C
V:1 treble nm="Violin" snm="Vln."
V:1
 e'/d'c'/ ba | ^gb c'd' | e' z e' z | !fermata!z2 z/ E/^D/E/ |:S F/E/(A A/)E/^D/E/ | %5
 F/E/(^G G/)E/^D/E/ | F/E/d/B/ ^G/E/D/_D/ | (C2 C/)A/_A/G/ | F/A/(d d/)c/A/F/ | E/A/(c c/)c/B/^A/ | %10
 B/B,/^D/^F/ B/^d/b/a/ | ^g2 z/ E/^D/E/ | F/E/(A A/)E/^D/E/ | F/E/(^G G/)E/^D/E/ | %14
 F/E/d/B/ ^G/E/D/_D/ | (C2 C/)A/_A/G/ | F/A/(d d/)c/A/F/ | E/A/c c/B/A/^A/ | B/E/^G/B/ e/d/c/B/ ||1 %19
O Ae a/ E/^D/E/!fine! :|2 Ae a/A/^c/e/ |: a/A/^c/(^g/ g/)A/c/^f/ ||[K:A] f/A/c/(e/ e/)A/c/f/ | %23
 f/A/c/(e/ e/)A/c/f/ | f/B/d/(e/ e/)d/e/f/ | a/d/e/(g/ g/)d/e/f/ | f/B/d/(e/ e/)d/e/f/ | %27
 a/d/e/(g/ g/)d/e/f/ | f/A/c/(e/ e/)A/c/e/ | a/A/c/(g/ g/)A/c/f/ | f/A/c/(e/ e/)A/c/e/ | %31
 f/e/c/^A/ f/e/c/A/ | B/^A/B/c/ d z | D/C/D/E/ F/G/A/B/ | c/d/^d/e/ f/e/=d/c/ | %35
 B/A/G/F/ E/D/C/B,/ |1 A,E A/A/c/e/ :|2 A,E A/ E/^D/E/ || z4!D.S.! ||[K:C]O A2 z/ B,/A,/_A,/ |: %40
 G,/C/E/G/ c/e/g/^g/ | a(f f/) B,/A,/_A,/ | G,/B,/D/F/ B/d/f/g/ | a(e e/)c'/e/c'/ | %44
 c'/e/b/e/ b/e/a/e/ | (a2 a/)b/g/b/ | b/g/a/c/ a/f/a/c/ | g/e/c/A/ G/ B,/A,/_A,/ | %48
 G,/C/E/G/ c/e/g/^g/ | a(f f/) B,/A,/_A,/ | G,/B,/D/F/ B/d/f/g/ | a(e e/) c/B/_B/ | %52
 A/^G/A/B/ d/c/B/c/ | e/G/c/e/ g/^f/=f/e/ | d/c/B/A/ G/F/E/D/ |1 C z c/ B,/A,/_A,/ :|2 %56
 C z c/E/^D/E/ |] z4!D.S.! |] %58

